public/assets/images/icons/red/resources.svg

<svg width="16" height="16" xmlns="http://www.w3.org/2000/svg" viewBox="0 0 54 54"><path d="M29 29v22h22V29Zm18.61 15.46-3.15 3.14L40 43.14l-4.46 4.46-3.15-3.14L36.86 40l-4.46-4.47 3.14-3.14L40 36.86l4.46-4.47 3.15 3.15L43.14 40ZM16 3v22h22V3Zm9.12 18.6-7.4-7.4L21 11l4.14 4.14L33 7.18l3.26 3.25ZM3 29v22h22V29Zm17.23 11.21v7.39h-4.09v-5.78h-4.28v5.78H7.77v-7.39H6.56L14 32.39l7.44 7.82Z" fill="#cb1800"/></svg>

<svg width="16" height="16" id="icons" xmlns="http://www.w3.org/2000/svg" viewBox="0 0 54 54"><defs><style>.cls-1{fill:#cb1800;}</style></defs><g id="resources"><path class="cls-1" d="M29,29V51H51V29ZM47.61,44.46,44.46,47.6,40,43.14,35.54,47.6l-3.15-3.14L36.86,40,32.4,35.53l3.14-3.14L40,36.86l4.46-4.47,3.15,3.15L43.14,40Z"/><path class="cls-1" d="M16,3V25H38V3Zm9.12,18.6-7.4-7.4L21,11l4.14,4.14L33,7.18l3.26,3.25Z"/><path class="cls-1" d="M3,29V51H25V29ZM20.23,40.21V47.6H16.14V41.82H11.86V47.6H7.77V40.21H6.56L14,32.39l7.44,7.82Z"/></g></svg>
